client/public/game_modes/bouncing_ball/frame8.svg

<svg xmlns="http://www.w3.org/2000/svg" width="437" height="483" fill="none"><path fill="#EDEDED" d="M239 180h20v20h-20v-20Zm0 20h20v20h-20v-20Zm20 20h20v20h-20v-20Zm0-20h20v20h-20v-20Zm20 20h20v20h-20v-20Zm0 20h20v20h-20v-20Zm-20 0h20v20h-20v-20Zm-20-20h20v20h-20v-20Zm-20-20h20v20h-20v-20Zm0-20h20v20h-20v-20Z"/><path stroke="#EDEDED" stroke-width="5" d="M239 180h20v20m-20-20v20m0-20h-20v20m40 0h-20m20 0v20m0-20h20v20m-40-20v20m0-20h-20m40 20h-20m20 0h20m-20 0v20m-20-20v20h20m-20-20h-20v-20m60 20v20m0-20h20v20m-20 0h-20m20 0h20m-20 0v20m-20-20v20h20m20-20v20h-20"/><path fill="#949494" d="M119 200h20v20h-20v-20Zm-20 20h20v20H99v-20Zm0 60h20v20H99v-20Zm0 20h20v20H99v-20Zm0 20h20v20H99v-20Zm100 60h20v20h-20v-20Zm60 0h20v20h-20v-20Zm-20 0h20v20h-20v-20Zm-20 0h20v20h-20v-20Zm-40-20h20v20h-20v-20Zm0 20h20v20h-20v-20Zm-20-20h20v20h-20v-20Zm0 20h20v20h-20v-20Zm-20-40h20v20h-20v-20Zm0 20h20v20h-20v-20Zm-20-40h20v20h-20v-20Zm0 20h20v20h-20v-20Zm0-40h20v20h-20v-20Zm-20-40h20v20H99v-20Zm0-20h20v20H99v-20Z"/><path stroke="#949494" stroke-width="5" d="M119 220h20v-20h-20v20Zm0 0H99v20m20-20v20m0 0H99m20 0v20m-20-20v20m0 20h20m-20 0v20m0-20v-20m20 20v20m0-20v-20m0 40H99m20 0v20m0-20h20v20m-40-20v20m20 0H99m20 0v20m0-20h20m-40 0v20h20m0 0h20m-20 0v20h20m60 20h20m-20 0v20m0-20v-20h-20m20 20h-20m40 0v20m0-20h20m-20 20h-20m20 0h20m-40 0h-20m80-20h20v20h-20m0-20v20m0-20h-20m20 20h-20m0-20v20m-60-40v20m0-20h-20m20 20v20m0-20h-20m20 20h-20v-20m0-20v20m0-20v-20h-20m20 20h-20m20 20h-20v-20m0-20v20m0-20v-20m-40-60h20"/><path fill="#D9D9D9" d="M139 180h20v20h-20v-20Zm40-20h20v20h-20v-20Zm0 20h20v20h-20v-20Zm20-20h20v20h-20v-20Zm40 0h20v20h-20v-20Zm20 0h20v20h-20v-20Zm0 20h20v20h-20v-20Zm20 0h20v20h-20v-20Zm0 20h20v20h-20v-20Zm20 0h20v20h-20v-20Zm0 60h20v20h-20v-20Zm0-20h20v20h-20v-20Zm0 40h20v20h-20v-20Zm0 40h20v20h-20v-20Zm0-100h20v20h-20v-20Zm0 80h20v20h-20v-20Zm20-40h20v20h-20v-20Zm0-20h20v20h-20v-20Zm0 40h20v20h-20v-20Zm0-60h20v20h-20v-20Zm0 80h20v20h-20v-20Zm-40-20h20v20h-20v-20Zm0-20h20v20h-20v-20Zm0 40h20v20h-20v-20Zm0 40h20v20h-20v-20Zm-20 20h20v20h-20v-20Zm60-40h20v20h-20v-20Zm-20 20h20v20h-20v-20Zm-20 20h20v20h-20v-20Zm-120-20h20v20h-20v-20Zm40 20h20v20h-20v-20Zm-40-60h20v20h-20v-20Zm-20 0h20v20h-20v-20Zm20-20h20v20h-20v-20Zm-20-20h20v20h-20v-20Zm0-20h20v20h-20v-20Zm20 0h20v20h-20v-20Zm-20-20h20v20h-20v-20Zm20 0h20v20h-20v-20Zm-20-20h20v20h-20v-20Zm20 60h20v20h-20v-20Zm0-60h20v20h-20v-20Zm-40 20h20v20h-20v-20Zm0 60h20v20h-20v-20Zm0-20h20v20h-20v-20Zm0-20h20v20h-20v-20Zm20 40h20v20h-20v-20Zm20 40h20v20h-20v-20Zm-20 0h20v20h-20v-20Zm40 0h20v20h-20v-20Zm0 20h20v20h-20v-20Zm20 0h20v20h-20v-20Zm20 20h20v20h-20v-20Zm20 0h20v20h-20v-20Zm40-40h20v20h-20v-20ZM179 200h20v20h-20v-20Zm0 40h20v20h-20v-20Zm0-20h20v20h-20v-20Zm0 40h20v20h-20v-20Zm0 40h20v20h-20v-20Zm0-20h20v20h-20v-20Zm20-80h20v20h-20v-20Zm0 20h20v20h-20v-20Zm0 40h20v20h-20v-20Zm0-20h20v20h-20v-20Zm0 40h20v20h-20v-20Zm0 40h20v20h-20v-20Zm0-20h20v20h-20v-20Zm20-80h20v20h-20v-20Zm0 20h20v20h-20v-20Zm0 40h20v20h-20v-20Zm0-20h20v20h-20v-20Zm0 40h20v20h-20v-20Zm0 40h20v20h-20v-20Zm0-20h20v20h-20v-20Zm20-80h20v20h-20v-20Zm0 20h20v20h-20v-20Zm0 40h20v20h-20v-20Zm0-20h20v20h-20v-20Zm0 60h20v20h-20v-20Zm0-20h20v20h-20v-20Zm20-60h20v20h-20v-20Zm0 20h20v20h-20v-20Zm0 40h20v20h-20v-20Zm0 20h20v20h-20v-20Zm0-40h20v20h-20v-20Zm-60-120h20v20h-20v-20Zm20-20h20v20h-20v-20Zm-60 0h20v20h-20v-20Zm0 20h20v20h-20v-20Z"/><path stroke="#D9D9D9" stroke-width="5" d="M159 180h-20v20m20-20v20m0-20h20m-20 0v-20h20m-20 40h-20m20 0v20m0-20h20m-40 0v20m40-60h20m-20 0v20m20-20v20m0-20h20m-20 20h-20m20 0v20m0-20h20m-40 0v20m20 0h-20m20 0v20m0-20h20m-40 0v20m40-60v20m0-20h20m-20 20v20m0-20h20m0-20h20m-20 0v20m20-20v20m0-20h20v20m-20 0h-20m20 0h20m-20 0v20h20m0-20v20m0-20h20v20m-20 0h20m-20 0v20h20m0-20v20m0-20h20v20m-20 0h20m-20 0v20m20-20v20m0-20h20v20m-40 20h20m-20 0v20m0-20v-20m0 20h-20m40 0v20m0-20v-20m0 20h20m-20 20h-20m20 0v20m0-20h20m-40 0v20m0-20h-20m20-40h20m0 0h20m-20 60h-20m20 0v20m0-20h20m-40 0v20m0-20h-20m20 20h20m-20 0v20m0-20h-20m40 0v20m0-20h20m-20 20h-20m20 0h20v-20m-20 20v20h-20m0-20h-20m20 0v20m40-100v20m0-20v-20m0 40v20m0 0v20m-60-40v20m0-20v-20m0 20h-20m20 20v20m0-20h-20m20-40h-20m20 60v20m0-20h-20m20 20v20m0-20h-20m40 20h-20m20 0v20h-20m0-20h-20m20 0v20m-20-20v20m0-20h-20m20 0v-20m20 40h-20m0 0h-20m-80-40h20m-20 0v20h20m-20-20v-20m0 20h-20v-20m40 20v20m0-20v-20m0 20h20m-20 20h20m0 0h20m-20 0v20h20m-20-20v-20m20 20v20m0-20v-20m0 20h20m-20 20h20m-80-80h20m-20 0v20m0-20h-20m20 0v-20m20 20v20m0-20v-20m0 20h20m-20 20h-20m20 0h20m-40 0h-20m0-20v20m0-20v-20m0 20h-20v-20m40 0h20m-20 0v-20m0 20h-20m40 0v-20m0 20h20m-60-20h20m-20 0v20m0-20v-20m0 20h-20m40 0v-20m0 20h20m-40 20h-20m20-40h20m-20 0v-20m0 20h-20m40 0h20m-20 0v-20m20 20v20m0-20v-20m0 20h20m-20 20h20m-60-40h20m-20 0h-20v20m40-20h20m0 0h20m-80 20v20m0 20v-20m80 60v20m0-20v-20m0 20h20m-20 20h20m0 0v-20m0 20h20m0 20v20m0-20v-20m-40-120v20m0-20h20m-20 20v20m0-20h20m-20 20v20m0-20h20m-20 20v20m0-20h20m-20 20h20m0-100v20m0 0v20m0-20h20v20m-20 0v20m0-20h20m-20 20v20m0-20h20m-20 20v20m0-20h20m-20 20v20m0-20h20m-20 20h20m0-80v20m0-20h20v20m-20 0v20m0-20h20m-20 20v20m0-20h20m-20 20v20m0-20h20m-20 20v20m0-20h20m-20 20h20m0-80v20m0 0v20m0 0v20m0 0v20"/></svg>

<svg width="437" height="483" viewBox="0 0 437 483" fill="none" xmlns="http://www.w3.org/2000/svg">
<path d="M239 180H259V200H239V180Z" fill="#EDEDED"/>
<path d="M239 200H259V220H239V200Z" fill="#EDEDED"/>
<path d="M259 220H279V240H259V220Z" fill="#EDEDED"/>
<path d="M259 200H279V220H259V200Z" fill="#EDEDED"/>
<path d="M279 220H299V240H279V220Z" fill="#EDEDED"/>
<path d="M279 240H299V260H279V240Z" fill="#EDEDED"/>
<path d="M259 240H279V260H259V240Z" fill="#EDEDED"/>
<path d="M239 220H259V240H239V220Z" fill="#EDEDED"/>
<path d="M219 200H239V220H219V200Z" fill="#EDEDED"/>
<path d="M219 180H239V200H219V180Z" fill="#EDEDED"/>
<path d="M239 180H259V200M239 180V200M239 180H219V200M259 200H239M259 200V220M259 200H279V220M239 200V220M239 200H219M259 220H239M259 220H279M259 220V240M239 220V240H259M239 220H219V200M279 220V240M279 220H299V240M279 240H259M279 240H299M279 240V260M259 240V260H279M299 240V260H279" stroke="#EDEDED" stroke-width="5"/>
<path d="M119 200H139V220H119V200Z" fill="#949494"/>
<path d="M99 220H119V240H99V220Z" fill="#949494"/>
<path d="M99 280H119V300H99V280Z" fill="#949494"/>
<path d="M99 300H119V320H99V300Z" fill="#949494"/>
<path d="M99 320H119V340H99V320Z" fill="#949494"/>
<path d="M199 380H219V400H199V380Z" fill="#949494"/>
<path d="M259 380H279V400H259V380Z" fill="#949494"/>
<path d="M239 380H259V400H239V380Z" fill="#949494"/>
<path d="M219 380H239V400H219V380Z" fill="#949494"/>
<path d="M179 360H199V380H179V360Z" fill="#949494"/>
<path d="M179 380H199V400H179V380Z" fill="#949494"/>
<path d="M159 360H179V380H159V360Z" fill="#949494"/>
<path d="M159 380H179V400H159V380Z" fill="#949494"/>
<path d="M139 340H159V360H139V340Z" fill="#949494"/>
<path d="M139 360H159V380H139V360Z" fill="#949494"/>
<path d="M119 320H139V340H119V320Z" fill="#949494"/>
<path d="M119 340H139V360H119V340Z" fill="#949494"/>
<path d="M119 300H139V320H119V300Z" fill="#949494"/>
<path d="M99 260H119V280H99V260Z" fill="#949494"/>
<path d="M99 240H119V260H99V240Z" fill="#949494"/>
<path d="M119 220H139V200H119V220ZM119 220H99V240M119 220V240M119 240H99M119 240V260M99 240V260M99 280H119M99 280V300M99 280V260M119 280V300M119 280V260M119 300H99M119 300V320M119 300H139V320M99 300V320M119 320H99M119 320V340M119 320H139M99 320V340H119M119 340H139M119 340V360H139M199 380H219M199 380V400M199 380V360H179M199 380H179M219 380V400M219 380H239M219 400H199M219 400H239M199 400H179M259 380H279V400H259M259 380V400M259 380H239M259 400H239M239 380V400M179 360V380M179 360H159M179 380V400M179 380H159M179 400H159V380M159 360V380M159 360V340H139M159 360H139M159 380H139V360M139 340V360M139 340V320M99 260H119" stroke="#949494" stroke-width="5"/>
<path d="M139 180H159V200H139V180Z" fill="#D9D9D9"/>
<path d="M179 160H199V180H179V160Z" fill="#D9D9D9"/>
<path d="M179 180H199V200H179V180Z" fill="#D9D9D9"/>
<path d="M199 160H219V180H199V160Z" fill="#D9D9D9"/>
<path d="M239 160H259V180H239V160Z" fill="#D9D9D9"/>
<path d="M259 160H279V180H259V160Z" fill="#D9D9D9"/>
<path d="M259 180H279V200H259V180Z" fill="#D9D9D9"/>
<path d="M279 180H299V200H279V180Z" fill="#D9D9D9"/>
<path d="M279 200H299V220H279V200Z" fill="#D9D9D9"/>
<path d="M299 200H319V220H299V200Z" fill="#D9D9D9"/>
<path d="M299 260H319V280H299V260Z" fill="#D9D9D9"/>
<path d="M299 240H319V260H299V240Z" fill="#D9D9D9"/>
<path d="M299 280H319V300H299V280Z" fill="#D9D9D9"/>
<path d="M299 320H319V340H299V320Z" fill="#D9D9D9"/>
<path d="M299 220H319V240H299V220Z" fill="#D9D9D9"/>
<path d="M299 300H319V320H299V300Z" fill="#D9D9D9"/>
<path d="M319 260H339V280H319V260Z" fill="#D9D9D9"/>
<path d="M319 240H339V260H319V240Z" fill="#D9D9D9"/>
<path d="M319 280H339V300H319V280Z" fill="#D9D9D9"/>
<path d="M319 220H339V240H319V220Z" fill="#D9D9D9"/>
<path d="M319 300H339V320H319V300Z" fill="#D9D9D9"/>
<path d="M279 280H299V300H279V280Z" fill="#D9D9D9"/>
<path d="M279 260H299V280H279V260Z" fill="#D9D9D9"/>
<path d="M279 300H299V320H279V300Z" fill="#D9D9D9"/>
<path d="M279 340H299V360H279V340Z" fill="#D9D9D9"/>
<path d="M259 360H279V380H259V360Z" fill="#D9D9D9"/>
<path d="M319 320H339V340H319V320Z" fill="#D9D9D9"/>
<path d="M299 340H319V360H299V340Z" fill="#D9D9D9"/>
<path d="M279 360H299V380H279V360Z" fill="#D9D9D9"/>
<path d="M159 340H179V360H159V340Z" fill="#D9D9D9"/>
<path d="M199 360H219V380H199V360Z" fill="#D9D9D9"/>
<path d="M159 300H179V320H159V300Z" fill="#D9D9D9"/>
<path d="M139 300H159V320H139V300Z" fill="#D9D9D9"/>
<path d="M159 280H179V300H159V280Z" fill="#D9D9D9"/>
<path d="M139 260H159V280H139V260Z" fill="#D9D9D9"/>
<path d="M139 240H159V260H139V240Z" fill="#D9D9D9"/>
<path d="M159 240H179V260H159V240Z" fill="#D9D9D9"/>
<path d="M139 220H159V240H139V220Z" fill="#D9D9D9"/>
<path d="M159 220H179V240H159V220Z" fill="#D9D9D9"/>
<path d="M139 200H159V220H139V200Z" fill="#D9D9D9"/>
<path d="M159 260H179V280H159V260Z" fill="#D9D9D9"/>
<path d="M159 200H179V220H159V200Z" fill="#D9D9D9"/>
<path d="M119 220H139V240H119V220Z" fill="#D9D9D9"/>
<path d="M119 280H139V300H119V280Z" fill="#D9D9D9"/>
<path d="M119 260H139V280H119V260Z" fill="#D9D9D9"/>
<path d="M119 240H139V260H119V240Z" fill="#D9D9D9"/>
<path d="M139 280H159V300H139V280Z" fill="#D9D9D9"/>
<path d="M159 320H179V340H159V320Z" fill="#D9D9D9"/>
<path d="M139 320H159V340H139V320Z" fill="#D9D9D9"/>
<path d="M179 320H199V340H179V320Z" fill="#D9D9D9"/>
<path d="M179 340H199V360H179V340Z" fill="#D9D9D9"/>
<path d="M199 340H219V360H199V340Z" fill="#D9D9D9"/>
<path d="M219 360H239V380H219V360Z" fill="#D9D9D9"/>
<path d="M239 360H259V380H239V360Z" fill="#D9D9D9"/>
<path d="M279 320H299V340H279V320Z" fill="#D9D9D9"/>
<path d="M179 200H199V220H179V200Z" fill="#D9D9D9"/>
<path d="M179 240H199V260H179V240Z" fill="#D9D9D9"/>
<path d="M179 220H199V240H179V220Z" fill="#D9D9D9"/>
<path d="M179 260H199V280H179V260Z" fill="#D9D9D9"/>
<path d="M179 300H199V320H179V300Z" fill="#D9D9D9"/>
<path d="M179 280H199V300H179V280Z" fill="#D9D9D9"/>
<path d="M199 200H219V220H199V200Z" fill="#D9D9D9"/>
<path d="M199 220H219V240H199V220Z" fill="#D9D9D9"/>
<path d="M199 260H219V280H199V260Z" fill="#D9D9D9"/>
<path d="M199 240H219V260H199V240Z" fill="#D9D9D9"/>
<path d="M199 280H219V300H199V280Z" fill="#D9D9D9"/>
<path d="M199 320H219V340H199V320Z" fill="#D9D9D9"/>
<path d="M199 300H219V320H199V300Z" fill="#D9D9D9"/>
<path d="M219 220H239V240H219V220Z" fill="#D9D9D9"/>
<path d="M219 240H239V260H219V240Z" fill="#D9D9D9"/>
<path d="M219 280H239V300H219V280Z" fill="#D9D9D9"/>
<path d="M219 260H239V280H219V260Z" fill="#D9D9D9"/>
<path d="M219 300H239V320H219V300Z" fill="#D9D9D9"/>
<path d="M219 340H239V360H219V340Z" fill="#D9D9D9"/>
<path d="M219 320H239V340H219V320Z" fill="#D9D9D9"/>
<path d="M239 240H259V260H239V240Z" fill="#D9D9D9"/>
<path d="M239 260H259V280H239V260Z" fill="#D9D9D9"/>
<path d="M239 300H259V320H239V300Z" fill="#D9D9D9"/>
<path d="M239 280H259V300H239V280Z" fill="#D9D9D9"/>
<path d="M239 340H259V360H239V340Z" fill="#D9D9D9"/>
<path d="M239 320H259V340H239V320Z" fill="#D9D9D9"/>
<path d="M259 260H279V280H259V260Z" fill="#D9D9D9"/>
<path d="M259 280H279V300H259V280Z" fill="#D9D9D9"/>
<path d="M259 320H279V340H259V320Z" fill="#D9D9D9"/>
<path d="M259 340H279V360H259V340Z" fill="#D9D9D9"/>
<path d="M259 300H279V320H259V300Z" fill="#D9D9D9"/>
<path d="M199 180H219V200H199V180Z" fill="#D9D9D9"/>
<path d="M219 160H239V180H219V160Z" fill="#D9D9D9"/>
<path d="M159 160H179V180H159V160Z" fill="#D9D9D9"/>
<path d="M159 180H179V200H159V180Z" fill="#D9D9D9"/>
<path d="M159 180H139V200M159 180V200M159 180H179M159 180V160H179M159 200H139M159 200V220M159 200H179M139 200V220M179 160H199M179 160V180M199 160V180M199 160H219M199 180H179M199 180V200M199 180H219M179 180V200M199 200H179M199 200V220M199 200H219M179 200V220M219 160V180M219 160H239M219 180V200M219 180H239M239 160H259M239 160V180M259 160V180M259 160H279V180M259 180H239M259 180H279M259 180V200H279M279 180V200M279 180H299V200M279 200H299M279 200V220H299M299 200V220M299 200H319V220M299 220H319M299 220V240M319 220V240M319 220H339V240M299 260H319M299 260V280M299 260V240M299 260H279M319 260V280M319 260V240M319 260H339M319 280H299M319 280V300M319 280H339M299 280V300M299 280H279M299 240H319M319 240H339M319 300H299M319 300V320M319 300H339M299 300V320M299 300H279M299 320H319M299 320V340M299 320H279M319 320V340M319 320H339M319 340H299M319 340H339V320M319 340V360H299M299 340H279M299 340V360M339 260V280M339 260V240M339 280V300M339 300V320M279 280V300M279 280V260M279 280H259M279 300V320M279 300H259M279 260H259M279 320V340M279 320H259M279 340V360M279 340H259M299 360H279M299 360V380H279M279 360H259M279 360V380M259 360V380M259 360H239M259 360V340M279 380H259M259 380H239M159 340H179M159 340V360H179M159 340V320M159 340H139V320M179 340V360M179 340V320M179 340H199M179 360H199M199 360H219M199 360V380H219M199 360V340M219 360V380M219 360V340M219 360H239M219 380H239M159 300H179M159 300V320M159 300H139M159 300V280M179 300V320M179 300V280M179 300H199M179 320H159M179 320H199M159 320H139M139 300V320M139 300V280M139 300H119V280M159 280H179M159 280V260M159 280H139M179 280V260M179 280H199M139 260H159M139 260V280M139 260V240M139 260H119M159 260V240M159 260H179M139 280H119M139 240H159M139 240V220M139 240H119M159 240H179M159 240V220M179 240V260M179 240V220M179 240H199M179 260H199M139 220H159M139 220H119V240M159 220H179M179 220H199M119 240V260M119 280V260M199 320V340M199 320V300M199 320H219M199 340H219M219 340V320M219 340H239M239 360V380M239 360V340M199 220V240M199 220H219M199 240V260M199 240H219M199 260V280M199 260H219M199 280V300M199 280H219M199 300H219M219 200V220M219 220V240M219 220H239V240M219 240V260M219 240H239M219 260V280M219 260H239M219 280V300M219 280H239M219 300V320M219 300H239M219 320H239M239 240V260M239 240H259V260M239 260V280M239 260H259M239 280V300M239 280H259M239 300V320M239 300H259M239 320V340M239 320H259M239 340H259M259 260V280M259 280V300M259 300V320M259 320V340" stroke="#D9D9D9" stroke-width="5"/>
</svg>
